X:2143
T:Oh my graih 
N:Moravian chorale: Marienbourn 
C:Traditional
O:Isle of Man
Z:Clague collection
B:Kiaull Vannin #143 
M:3/4 
L:1/8 
Q:180 
K:G 
e2|(AB c2) B2|c4 B2|(A>B c2) BA|G4 E2|(A>B c2) B2|c2 B2(A!3!Bc)|(B2 A2) G2|A4 B2| 
(c2 d2) e2|d4 (d!3!cd)|(e2 d2) c2|B4 cd|e4 A2|G2 E2 (A!3!Bc)|B2 A2 G2|A4|| 

